ressources/media/go-bottom.svg

<?xml version="1.0" encoding="UTF-8" standalone="no"?>
<svg
   xmlns:dc="http://purl.org/dc/elements/1.1/"
   xmlns:cc="http://creativecommons.org/ns#"
   xmlns:rdf="http://www.w3.org/1999/02/22-rdf-syntax-ns#"
   xmlns:svg="http://www.w3.org/2000/svg"
   xmlns="http://www.w3.org/2000/svg"
   width="16"
   height="16"
   viewBox="0 0 16 16"
   version="1.1"
   id="svg7">
  <metadata
     id="metadata11">
    <rdf:RDF>
      <cc:Work
         rdf:about="">
        <dc:format>image/svg+xml</dc:format>
        <dc:type
           rdf:resource="http://purl.org/dc/dcmitype/StillImage" />
      </cc:Work>
    </rdf:RDF>
  </metadata>
  <defs
     id="defs3">
    <style
       id="current-color-scheme"
       type="text/css">
   .ColorScheme-Text { color:#404040; } .ColorScheme-Highlight { color:#5294e2; }
  </style>
  </defs>
  <path
     style="fill:#404040;fill-opacity:1;stroke-width:0.99870044"
     d="M 1.9999998,6.9999996 7.9844198,13 14,6.9999996 12.62857,5.5937488 9.0129898,9.2499996 8.9818698,0.9999998 h -1.99481 l 0.0311,8.2499998 -3.64675,-3.6562508 z M 2.9973998,16 H 12.97143 V 14 H 2.9973998 Z"
     id="path5849" />
</svg>

<svg height="16" width="16" xmlns="http://www.w3.org/2000/svg"><path d="m2 7 5.984 6 6.016-6-1.371-1.406-3.616 3.656-.031-8.25h-1.995l.031 8.25-3.647-3.656zm.997 9h9.974v-2h-9.974z" fill="#404040"/></svg>
